optimized/24/outline/picture-check.svg

<svg viewBox="0 0 24 24" fill="none" xmlns="http://www.w3.org/2000/svg">
  <g clip-path="url(#clip0_2117_12134)">
    <path d="M8.48706 6.25C7.24442 6.25 6.23706 7.25736 6.23706 8.5C6.23706 9.74264 7.24442 10.75 8.48706 10.75C9.7297 10.75 10.7371 9.74264 10.7371 8.5C10.7371 7.25736 9.7297 6.25 8.48706 6.25ZM7.73706 8.5C7.73706 8.08579 8.07285 7.75 8.48706 7.75C8.90127 7.75 9.23706 8.08579 9.23706 8.5C9.23706 8.91421 8.90127 9.25 8.48706 9.25C8.07285 9.25 7.73706 8.91421 7.73706 8.5Z" fill="#333333"/>
    <path d="M2.98706 6C2.98706 4.34315 4.33021 3 5.98706 3H17.9871C19.6439 3 20.9871 4.34315 20.9871 6L21.0128 13.5557C21.0147 14.1093 20.5664 14.5591 20.0128 14.5591H19.9466C19.6719 14.5591 19.4098 14.4466 19.2209 14.247C18.2858 13.2588 15.8811 10.7169 15.2996 10.0966L6.48386 19.5H12.2371C12.6513 19.5 12.9871 19.8358 12.9871 20.25C12.9871 20.6642 12.6513 21 12.2371 21H5.98706C4.33021 21 2.98706 19.6569 2.98706 18V6ZM5.98706 4.5C5.15863 4.5 4.48706 5.17157 4.48706 6V18C4.48706 18.3914 4.63698 18.7478 4.88253 19.0149L14.7524 8.48704C14.8942 8.33581 15.0923 8.25 15.2996 8.25C15.5069 8.25 15.7049 8.33581 15.8467 8.48704L19.4871 12.3701V6C19.4871 5.17157 18.8155 4.5 17.9871 4.5H5.98706Z" fill="#333333"/>
    <path d="M15.2628 17C14.8486 17 14.5128 17.3358 14.5128 17.75C14.5128 18.1642 14.8486 18.5 15.2628 18.5H17.0128V20.25C17.0128 20.6642 17.3486 21 17.7628 21C18.177 21 18.5128 20.6642 18.5128 20.25V18.5H20.2628C20.677 18.5 21.0128 18.1642 21.0128 17.75C21.0128 17.3358 20.677 17 20.2628 17H18.5128V15.25C18.5128 14.8358 18.177 14.5 17.7628 14.5C17.3486 14.5 17.0128 14.8358 17.0128 15.25V17H15.2628Z" fill="#333333"/>
  </g>
  <defs>
    <clipPath id="clip0_2117_12134">
      <rect width="24" height="24" fill="white"/>
    </clipPath>
  </defs>
</svg>

<svg xmlns="http://www.w3.org/2000/svg" width="24" height="24" fill="none">
  <g fill="#333" clip-path="url(#a)">
    <path d="M8.487 6.25a2.25 2.25 0 1 0 0 4.5 2.25 2.25 0 0 0 0-4.5Zm-.75 2.25a.75.75 0 1 1 1.5 0 .75.75 0 0 1-1.5 0Z"/>
    <path d="M2.987 6a3 3 0 0 1 3-3h12a3 3 0 0 1 3 3l.026 7.556a1 1 0 0 1-1 1.003h-.066a.998.998 0 0 1-.726-.312c-.935-.988-3.34-3.53-3.921-4.15L6.484 19.5h5.753a.75.75 0 0 1 0 1.5h-6.25a3 3 0 0 1-3-3V6Zm3-1.5a1.5 1.5 0 0 0-1.5 1.5v12c0 .391.15.748.396 1.015l9.87-10.528a.75.75 0 0 1 1.094 0l3.64 3.883V6a1.5 1.5 0 0 0-1.5-1.5h-12Z"/>
    <path d="M15.263 17a.75.75 0 0 0 0 1.5h1.75v1.75a.75.75 0 0 0 1.5 0V18.5h1.75a.75.75 0 0 0 0-1.5h-1.75v-1.75a.75.75 0 0 0-1.5 0V17h-1.75Z"/>
  </g>
  <defs>
    <clipPath id="a">
      <path fill="#fff" d="M0 0h24v24H0z"/>
    </clipPath>
  </defs>
</svg>
